dist/landing-a/assets/images/ai.svg

<svg width="24" height="24" viewBox="0 0 24 24" fill="none" xmlns="http://www.w3.org/2000/svg">
<path d="M19.133 11.5687C19.133 11.1927 18.922 10.8477 18.586 10.6767C17.726 10.2387 16.805 9.8357 15.773 9.4437C14.067 8.7897 12.824 7.5277 12.178 5.7987C11.791 4.7497 11.393 3.8157 10.962 2.9437C10.793 2.6037 10.445 2.3877 10.066 2.3877C9.687 2.3877 9.337 2.6037 9.17 2.9447C8.74 3.8137 8.343 4.7477 7.956 5.7947C7.31 7.5267 6.066 8.7887 4.363 9.4417C3.325 9.8367 2.403 10.2397 1.546 10.6767C1.211 10.8467 1 11.1917 1 11.5677C1 11.9437 1.211 12.2887 1.547 12.4597C2.409 12.8977 3.33 13.3017 4.36 13.6917C6.066 14.3457 7.309 15.6077 7.955 17.3377C8.344 18.3907 8.741 19.3227 9.17 20.1917C9.339 20.5327 9.686 20.7487 10.066 20.7487C10.446 20.7487 10.794 20.5327 10.962 20.1917C11.393 19.3227 11.79 18.3887 12.176 17.3407C12.823 15.6087 14.068 14.3467 15.769 13.6937C16.803 13.3017 17.724 12.8987 18.586 12.4607C18.922 12.2897 19.133 11.9457 19.133 11.5687Z" fill="black"/>
<path d="M17.0949 6.54185C17.3499 6.67185 17.6009 6.77885 17.8479 6.87285C18.0549 6.95285 18.1999 7.10085 18.2779 7.30785C18.3699 7.56085 18.4749 7.81285 18.6019 8.07085C18.7689 8.41285 19.1169 8.63085 19.4979 8.63085H19.4999C19.8799 8.63085 20.2279 8.41485 20.3959 8.07385C20.5229 7.81685 20.6269 7.56385 20.7199 7.31285C20.7999 7.10085 20.9449 6.95285 21.1479 6.87485C21.3989 6.77985 21.6489 6.67285 21.9039 6.54285C22.2399 6.37285 22.4509 6.02685 22.4509 5.65085C22.4509 5.27485 22.2389 4.92985 21.9029 4.75985C21.6489 4.63185 21.3989 4.52485 21.1509 4.42985C20.9449 4.35085 20.7999 4.20285 20.7209 3.99285C20.6269 3.73985 20.5229 3.48685 20.3949 3.22885C20.2269 2.88885 19.8789 2.67285 19.4989 2.67285H19.4969C19.1159 2.67285 18.7689 2.88985 18.6009 3.23185C18.4749 3.48885 18.3699 3.74185 18.2789 3.98985C18.1989 4.20185 18.0539 4.34985 17.8509 4.42785C17.5989 4.52385 17.3489 4.62985 17.0939 4.75985C16.7579 4.92985 16.5469 5.27485 16.5469 5.65085C16.5469 6.02685 16.7579 6.37185 17.0939 6.54185H17.0949Z" fill="black"/>
<path d="M22.4539 17.185C22.1369 17.024 21.8239 16.89 21.5159 16.774C21.1769 16.644 20.9299 16.392 20.8029 16.05C20.6859 15.734 20.5549 15.418 20.3969 15.098C20.2279 14.757 19.8799 14.541 19.5009 14.541C19.1199 14.541 18.7719 14.758 18.6049 15.1C18.4479 15.42 18.3169 15.735 18.2029 16.045C18.0729 16.392 17.8259 16.644 17.4919 16.772C17.1799 16.89 16.8659 17.024 16.5499 17.186C16.2149 17.357 16.0039 17.701 16.0039 18.077C16.0039 18.453 16.2149 18.797 16.5499 18.968C16.8659 19.129 17.1779 19.262 17.4889 19.381C17.8259 19.51 18.0729 19.761 18.2009 20.104C18.3169 20.419 18.4479 20.735 18.6059 21.054C18.7739 21.395 19.1209 21.611 19.5019 21.612C19.8819 21.612 20.2289 21.397 20.3979 21.056C20.5569 20.736 20.6879 20.42 20.8039 20.107C20.9319 19.761 21.1789 19.51 21.5159 19.381C21.8279 19.262 22.1389 19.13 22.4549 18.969C22.7909 18.798 23.0019 18.453 23.0019 18.077C23.0019 17.701 22.7909 17.356 22.4549 17.185H22.4539Z" fill="black"/>
</svg>

<svg width="24" height="24" fill="none" xmlns="http://www.w3.org/2000/svg"><path d="M19.133 11.569c0-.376-.211-.721-.547-.892a28.27 28.27 0 00-2.813-1.233c-1.706-.654-2.949-1.916-3.595-3.645a29.208 29.208 0 00-1.216-2.855 1 1 0 00-1.792.001c-.43.869-.827 1.803-1.214 2.85-.646 1.732-1.89 2.994-3.593 3.647-1.038.395-1.96.798-2.817 1.235a1 1 0 00.001 1.783c.862.438 1.783.842 2.813 1.232 1.706.654 2.949 1.916 3.595 3.646a29.437 29.437 0 001.215 2.854 1 1 0 001.792 0c.431-.87.828-1.803 1.214-2.851.647-1.732 1.892-2.994 3.593-3.647a28.357 28.357 0 002.817-1.233 1 1 0 00.547-.892zm-2.038-5.027c.255.13.506.237.753.33.207.08.352.229.43.436.092.253.197.505.324.763.167.342.515.56.896.56h.002a1 1 0 00.896-.557c.127-.257.23-.51.324-.761a.722.722 0 01.428-.438 7.47 7.47 0 00.756-.332 1 1 0 00-.001-1.783 8.087 8.087 0 00-.752-.33.721.721 0 01-.43-.437 7.85 7.85 0 00-.326-.764 1 1 0 00-.896-.556h-.002a.998.998 0 00-.896.559c-.126.257-.231.51-.322.758a.722.722 0 01-.428.438 7.613 7.613 0 00-.757.332.998.998 0 000 1.782zm5.359 10.643a9.3 9.3 0 00-.938-.411 1.204 1.204 0 01-.713-.724 9.883 9.883 0 00-.406-.952.997.997 0 00-1.792.002c-.157.32-.288.635-.402.945-.13.347-.377.599-.711.727a9.131 9.131 0 00-.942.414 1 1 0 000 1.782c.316.161.628.294.939.413.337.129.584.38.712.723.116.315.247.631.405.95a1 1 0 001.792.002c.159-.32.29-.636.406-.949a1.2 1.2 0 01.712-.726c.312-.119.623-.251.939-.412a1.001 1.001 0 000-1.784h-.001z" fill="#000"/></svg>
